!!!COM: Richard Strauss
!!!CNT: Deutscher
!!!TXO: Deutsche 
!!!OTL: "Die Frauen sind oft fromm und still"
!!!OPS: Opus 21
!!!ONM: No. 5
!!!LYR: Felix Dahn
!!!ENC: Brian Bice
!!!YOR: Lieder, Complete Edition, vol. 1
!!!ODT: 1888/
!!NB: Vocal melody and text only encoded.
**kern	**silbe
*clefG2	*
*k[f#]	*
*M4/4	*
=6	=6
4r	.
8r	.
{8b	{Die
8b	Frau-
8g	-en
8a	sind
8b	oft
=7	=7
2.dd	fromm
4g	und
=8	=8
4b}	still,}
8r	.
{8a	{wo
2cc	wir
=9	=9
4.ee-	un-
8cc	-ge-
4a	-ber-
4g	-dig
=10	=10
4g	to-
8g-}	-ben,}
8r	.
4r	.
{4fn	{und
=11	=11
8fn	wenn
8g	sich
8a	ei-
8b-	-ne
[2dd	sta2r-
=12	=12
4.dd]	|
8g	-ken
4g}	will,}
{4g#	{dann
=13	=13
4.a	blickt
8a	sie
4a#	stumm
4cc#	nach
=14	=14
2ff#	o-
4dd}	-ben.}
4r	.
=15	=15
2r	.
4r	.
{4ee	{Ihr'
=16	=16
4.ee	Kraft
8dd	und
4b	Sta2r-
4cc	-ke
=17	=17
8r	.
4g	ist
8b	ge-
8a}	-ring,}
8r	.
{4ee	{ein
=18	=18
8dd	Lu2ft-
8cc	-chen
8b	kann
8a	sie
4g	kni-
8f#}	-cken,}
8r	.
=19	=19
8r	.
{8f#	{doch
8f#	ist's
8g#	ein
4cc#	eig-
4a#	-nes,
=20	=20
4.ee	star-
8cc#	-kes
4a#}	Ding,}
{12f#	{wenn
12a#	sie
12cc#	gen
=21	=21
*M3/2	*
4.ff#	Him-
8dd#	-mel
4cc#	bli-
4b}	-cken.}
2r	.
=22	=22
*M4/4	*
8r	.
{8ee	{Oft
8dd	hab'
8ccn	ich
8b	selbst
8a	mit
[4g	auf
=23	=23
8g]	|
8a	ge-
4b}	-sehn,}
4r	.
{8dd	{sah
8cc	die
=24	=24
8cc	Mut-
8b-	-ter
2ee-	so
4ffn	nach
=25	=25
2gg	o-
4gg}	-ben,}
4r	.
=26	=26
8r	.
{8ee	{ich
8dd#	sah
8cc#	nur
8b	grau-
8a	-e
[4g#	Wol-
=27	=27
8g#]	|
8a	-ken
4b}	gehn}
8r	.
{8b	{und
8ddn	blau-
8ee	-e
=28	=28
8gg	Luft
8b	da
4.a	dro-
8g}	-ben,}
4r	.
=29	=29
{4ee	{sie
8cc#	a-
8b	-ber,
8r	.
4ee	wenn
8ff#	sie
=30	=30
4.gg	nie-
8a	-der
4a}	sah,}
{[4a	{war
=31	=31
4a]	|
8a	vol-
8a	-ler
4.b	Kraft
8cc	und
=32	=32
2cc	Hof-
4b}	-fen,}
4r	.
=33	=33
8r	.
{8b	{mir
4cc	ist,
4r	.
4b	die
=34	=34
2.ff#	Frau-
4a#}	-en}
=35	=35
8r	.
{4b	{hie
8cc#	und
4f#	da
12b	sehn
12dd#	noch
12ff#	den
=36	=36
[1aa	Him-
=37	=37
2aa]	|
2ee	-mel
=38	=38
(2a	of-
cc#q	|
bq)	|
4a}	-fen.}
4r	.
*-	*-
